src/images/linkedin-logo.svg

<?xml version="1.0" encoding="UTF-8"?>
<svg width="32px" height="32px" viewBox="0 0 32 32" version="1.1" xmlns="http://www.w3.org/2000/svg" xmlns:xlink="http://www.w3.org/1999/xlink">
    <!-- Generator: Sketch 61 (89581) - https://sketch.com -->
    <title>linkedin</title>
    <desc>Created with Sketch.</desc>
    <g id="work" stroke="none" stroke-width="1" fill="none" fill-rule="evenodd">
        <g id="Current-Favorite-10-Dec-2019-Copy-4" transform="translate(-60.000000, -441.000000)" fill="#6600FF" fill-rule="nonzero">
            <g id="linkedin" transform="translate(60.000000, 441.000000)">
                <polygon id="Path" points="5.87319588 12.5298969 10.3273196 12.5298969 10.3273196 25.9301546 5.87319588 25.9301546"></polygon>
                <path d="M8.07087631,10.7010309 L8.10025772,10.7010309 C9.65412368,10.7010309 10.6203608,9.67164952 10.6203608,8.38505158 C10.5909794,7.07010309 9.65412368,6.06984538 8.12938148,6.06984538 C6.60489692,6.06984538 5.60824742,7.07010309 5.60824742,8.38505158 C5.60824742,9.67164952 6.57680416,10.7010309 8.07087631,10.7010309 Z" id="Path"></path>
                <path d="M17.2469072,25.9301546 L17.2469072,18.446134 C17.2469072,18.0445876 17.2775773,17.6466495 17.3948454,17.3603093 C17.7172681,16.5587629 18.4489691,15.7311856 19.6804124,15.7311856 C21.2927835,15.7311856 21.9365979,16.9603093 21.9365979,18.7608247 L21.9365979,25.9298969 L26.3917526,25.9298969 L26.3917526,18.2456185 C26.3917526,14.1298969 24.1940721,12.2152062 21.2623711,12.2152062 C18.8956186,12.2152062 17.8389175,13.5177835 17.2469072,14.4286083 L17.2469072,14.4724227 L17.2177835,14.4724227 C17.2255155,14.4579897 17.2381443,14.443299 17.2469072,14.4286083 L17.2469072,12.5298969 L12.7909794,12.5298969 C12.8507732,13.7868557 12.7909794,25.9298969 12.7909794,25.9298969 L17.2469072,25.9298969 L17.2469072,25.9301546 Z" id="Path"></path>
                <path d="M0,0 L0,32 L32,32 L32,0 L0,0 Z M30.0206186,30.0206186 L1.97938144,30.0206186 L1.97938144,1.97938144 L30.0206186,1.97938144 L30.0206186,30.0206186 Z" id="Shape"></path>
            </g>
        </g>
    </g>
</svg>

<svg width="32" height="32" xmlns="http://www.w3.org/2000/svg"><g fill="#60F" fill-rule="nonzero"><path d="M5.873 12.53h4.454v13.4H5.873zM8.07 10.701h.03c1.554 0 2.52-1.03 2.52-2.316-.029-1.315-.966-2.315-2.49-2.315-1.525 0-2.522 1-2.522 2.315 0 1.287.969 2.316 2.463 2.316zM17.247 25.93v-7.484c0-.401.03-.8.148-1.086.322-.801 1.054-1.629 2.285-1.629 1.613 0 2.257 1.23 2.257 3.03v7.169h4.455v-7.684c0-4.116-2.198-6.03-5.13-6.03-2.366 0-3.423 1.302-4.015 2.213v.043h-.03l.03-.043v-1.9H12.79c.06 1.258 0 13.4 0 13.4h4.456v.001z"/><path d="M0 0v32h32V0H0zm30.02 30.02H1.98V1.98h28.04v28.04z"/></g></svg>
